X: 22208
T: La Ciapa Rusa
R: mazurka
M: 3/4
K: Eminor
EF GA Bc|B4 eB|cB AB ce|B4 cB|
A2 FG AB|G2 EF GE|1 F2 B2 ^A2|B4:|2 F/G/F ^DE FG|E4||
BG EB GE|BG EB GE|cG Ec GE|cE Gc BA|
BE GB AG|BE GB AG|1 F2 B2 ^A2|B4:|2 F/G/F ^DE FG|E4||

